X: 343
T:Maid behind the Bar
M:C
L:1/8
C:Trad
R:reel
Z:Craig Herrity
K:D
FAAB AFDE|FAAB A2 de|f~B3 dcd"Glide"e|f2af edBA|F~A3 BAFE|
FAAB A2de|f~B3 dcdB|AFEF "slap"D3[Ee]:||:faag f~d3|fdad f~d3|
efga b~e3|g/2f/2e be g2eg|f/2g/2a af bfaf|d/2e/2f af e2de|f~B3 dcdB|
AFEF"slap"D3G:||
<end>
<start>
